static/cards/FrenchDeck/default/card_hearts_A.svg

<svg width="219" height="304" viewBox="0 0 219 304" fill="none" xmlns="http://www.w3.org/2000/svg">
<g filter="url(#filter0_d_18_656)">
<g clip-path="url(#clip0_18_656)">
<rect x="8" y="4" width="203" height="288" rx="10" fill="white"/>
<path d="M16.1909 44.2603C15.1899 44.2603 14.5293 43.6797 14.5293 42.7588C14.5293 42.3584 14.6294 41.978 14.7896 41.4976L23.0176 18.4951C23.5181 17.0938 24.2188 16.4531 25.5 16.4531C26.7812 16.4531 27.4819 17.0938 27.9824 18.4951L36.2104 41.4976C36.3706 41.938 36.4707 42.3584 36.4707 42.7388C36.4707 43.6797 35.8101 44.2603 34.7891 44.2603C33.8281 44.2603 33.2876 43.7998 32.9072 42.6187L30.605 35.792H20.375L18.0728 42.6187C17.6924 43.8198 17.1519 44.2603 16.1909 44.2603ZM21.3159 32.9692H29.6641L25.5601 20.7974H25.4199L21.3159 32.9692Z" fill="#BC1E24"/>
<path d="M21.7347 53.0006C24.4518 53.042 25.5069 55.3984 25.8537 56.5094C25.8888 56.6218 26.1122 56.6217 26.1472 56.5093C26.4938 55.3983 27.5482 53.042 30.2653 53.0006C33.8229 52.9462 36.4995 56.9292 34.0587 60.9289C31.8832 64.4939 26.0821 71 26 71C25.9165 71 20.1169 64.4943 17.9413 60.9289C15.5005 56.9291 18.177 52.9462 21.7347 53.0006Z" fill="#BC1E24"/>
<path d="M202.809 251.74C203.81 251.74 204.471 252.32 204.471 253.241C204.471 253.642 204.371 254.022 204.21 254.502L195.982 277.505C195.482 278.906 194.781 279.547 193.5 279.547C192.219 279.547 191.518 278.906 191.018 277.505L182.79 254.502C182.629 254.062 182.529 253.642 182.529 253.261C182.529 252.32 183.19 251.74 184.211 251.74C185.172 251.74 185.712 252.2 186.093 253.381L188.395 260.208L198.625 260.208L200.927 253.381C201.308 252.18 201.848 251.74 202.809 251.74ZM197.684 263.031L189.336 263.031L193.44 275.203L193.58 275.203L197.684 263.031Z" fill="#BC1E24"/>
<path d="M197.265 242.999C194.548 242.958 193.493 240.602 193.146 239.491C193.111 239.378 192.888 239.378 192.853 239.491C192.506 240.602 191.452 242.958 188.735 242.999C185.177 243.054 182.501 239.071 184.941 235.071C187.117 231.506 192.918 225 193 225C193.083 225 198.883 231.506 201.059 235.071C203.499 239.071 200.823 243.054 197.265 242.999Z" fill="#BC1E24"/>
<path d="M99.2206 126.251C105.769 126.352 108.312 132.046 109.148 134.731C109.232 135.003 109.77 135.003 109.855 134.731C110.69 132.046 113.231 126.352 119.779 126.251C128.353 126.12 134.804 135.745 128.922 145.411C123.679 154.027 109.698 169.75 109.5 169.75C109.299 169.75 95.3218 154.028 90.0785 145.411C84.1963 135.745 90.6467 126.12 99.2206 126.251Z" fill="#BC1E24"/>
</g>
</g>
<defs>
<filter id="filter0_d_18_656" x="0" y="0" width="219" height="304" filterUnits="userSpaceOnUse" color-interpolation-filters="sRGB">
<feFlood flood-opacity="0" result="BackgroundImageFix"/>
<feColorMatrix in="SourceAlpha" type="matrix" values="0 0 0 0 0 0 0 0 0 0 0 0 0 0 0 0 0 0 127 0" result="hardAlpha"/>
<feOffset dy="4"/>
<feGaussianBlur stdDeviation="4"/>
<feComposite in2="hardAlpha" operator="out"/>
<feColorMatrix type="matrix" values="0 0 0 0 0.614771 0 0 0 0 0.70094 0 0 0 0 0.806257 0 0 0 1 0"/>
<feBlend mode="normal" in2="BackgroundImageFix" result="effect1_dropShadow_18_656"/>
<feBlend mode="normal" in="SourceGraphic" in2="effect1_dropShadow_18_656" result="shape"/>
</filter>
<clipPath id="clip0_18_656">
<rect x="8" y="4" width="203" height="288" rx="10" fill="white"/>
</clipPath>
</defs>
</svg>

<svg xmlns="http://www.w3.org/2000/svg" width="219" height="304" fill="none" viewBox="0 0 219 304"><g filter="url(#a)"><g clip-path="url(#b)"><rect width="203" height="288" x="8" y="4" fill="#fff" rx="10"/><path fill="#bc1e24" d="M16.19 44.26c-1 0-1.66-.58-1.66-1.501 0-.4.1-.781.26-1.261l8.228-23.003c.5-1.401 1.2-2.042 2.482-2.042 1.281 0 1.982.64 2.482 2.042l8.228 23.003c.16.44.26.86.26 1.24 0 .942-.66 1.522-1.68 1.522-.962 0-1.502-.46-1.883-1.641l-2.302-6.827h-10.23l-2.302 6.827c-.38 1.2-.921 1.641-1.882 1.641m5.126-11.29h8.348L25.56 20.796h-.14zM21.735 53c2.717.042 3.772 2.398 4.119 3.51.035.112.258.112.293 0 .347-1.112 1.401-3.468 4.118-3.51 3.558-.054 6.234 3.93 3.794 7.929C31.883 64.494 26.082 71 26 71c-.084 0-5.883-6.506-8.059-10.071-2.44-4 .236-7.983 3.794-7.928M202.809 251.74c1.001 0 1.662.58 1.662 1.501 0 .401-.1.781-.261 1.261l-8.228 23.003c-.5 1.401-1.201 2.042-2.482 2.042s-1.982-.641-2.482-2.042l-8.228-23.003c-.161-.44-.261-.86-.261-1.241 0-.941.661-1.521 1.682-1.521.961 0 1.501.46 1.882 1.641l2.302 6.827h10.23l2.302-6.827c.381-1.201.921-1.641 1.882-1.641m-5.125 11.291h-8.348l4.104 12.172h.14zM197.265 242.999c-2.717-.041-3.772-2.397-4.119-3.508-.035-.113-.258-.113-.293 0-.347 1.111-1.401 3.467-4.118 3.508-3.558.055-6.234-3.928-3.794-7.928C187.117 231.506 192.918 225 193 225c.083 0 5.883 6.506 8.059 10.071 2.44 4-.236 7.983-3.794 7.928M99.22 126.251c6.549.101 9.092 5.795 9.928 8.48.084.272.622.272.707 0 .835-2.685 3.376-8.379 9.924-8.48 8.574-.131 15.025 9.494 9.143 19.16-5.243 8.616-19.224 24.339-19.422 24.339-.201 0-14.178-15.722-19.421-24.339-5.883-9.666.568-19.291 9.142-19.16"/></g></g><defs><clipPath id="b"><rect width="203" height="288" x="8" y="4" fill="#fff" rx="10"/></clipPath><filter id="a" width="219" height="304" x="0" y="0" color-interpolation-filters="sRGB" filterUnits="userSpaceOnUse"><feFlood flood-opacity="0" result="BackgroundImageFix"/><feColorMatrix in="SourceAlpha" result="hardAlpha" values="0 0 0 0 0 0 0 0 0 0 0 0 0 0 0 0 0 0 127 0"/><feOffset dy="4"/><feGaussianBlur stdDeviation="4"/><feComposite in2="hardAlpha" operator="out"/><feColorMatrix values="0 0 0 0 0.614771 0 0 0 0 0.70094 0 0 0 0 0.806257 0 0 0 1 0"/><feBlend in2="BackgroundImageFix" result="effect1_dropShadow_18_656"/><feBlend in="SourceGraphic" in2="effect1_dropShadow_18_656" result="shape"/></filter></defs></svg>
